X: 2
T: Jump Ship
R: reel
M: 4/4
L: 1/8
K: Emin
BE E/E/E DEBD|CGFD E/E/E dB|BE E/E/E DEBD|C/C/C BC BAGd|
BE E/E/E DEBD|CGFD E/E/E dB|BE E/E/E DEBD|1 CBCD GEFD:|[ 2 CBCA Bde||
|:eB B/B/B eBgB|dA A/A/A dAfA|eB B/B/B eBgB|dfdB BABd|
eB B/B/B eBgB|dA A/A/A dAfA|eB B/B/B eBgB|GFGB GFDE:|

